resources/icons/20px/clipboard-file.svg

<svg width="20" height="20" viewBox="0 0 20 20" fill="none" xmlns="http://www.w3.org/2000/svg">
<path fill-rule="evenodd" clip-rule="evenodd" d="M7 9C7 8.44772 7.44772 8 8 8H14.5858C14.851 8 15.1054 8.10536 15.2929 8.29289L16.7071 9.70711C16.8946 9.89464 17 10.149 17 10.4142V19C17 19.5523 16.5523 20 16 20H8C7.44772 20 7 19.5523 7 19V9ZM9.5 11C9.22386 11 9 11.2239 9 11.5C9 11.7761 9.22386 12 9.5 12H14.5C14.7761 12 15 11.7761 15 11.5C15 11.2239 14.7761 11 14.5 11H9.5ZM9.5 14C9.22386 14 9 14.2239 9 14.5C9 14.7761 9.22386 15 9.5 15H14.5C14.7761 15 15 14.7761 15 14.5C15 14.2239 14.7761 14 14.5 14H9.5ZM9.5 17C9.22386 17 9 17.2239 9 17.5C9 17.7761 9.22386 18 9.5 18H14.5C14.7761 18 15 17.7761 15 17.5C15 17.2239 14.7761 17 14.5 17H9.5Z" fill="#5F6B7C"/>
<path d="M12 1.94286C12 1.40857 11.55 0.971429 11 0.971429H10.22C9.87 0.388571 9.24 0 8.5 0C7.76 0 7.12 0.388571 6.78 0.971429H6C5.45 0.971429 5 1.40857 5 1.94286V3H12V1.94286Z" fill="#5F6B7C"/>
<path d="M13 4H4.03922V2H3C2.44772 2 2 2.44772 2 3V17C2 17.5523 2.44772 18 3 18H6V8C6 7.44772 6.44771 7 7 7H15V3C15 2.44772 14.5523 2 14 2H13V4Z" fill="#5F6B7C"/>
</svg>

<svg xmlns="http://www.w3.org/2000/svg" viewBox="0 0 20 20">
  <path d="M7 9a1 1 0 0 1 1-1h6.586a1 1 0 0 1 .707.293l1.414 1.414a1 1 0 0 1 .293.707V19a1 1 0 0 1-1 1H8a1 1 0 0 1-1-1zm2.5 2a.5.5 0 0 0 0 1h5a.5.5 0 0 0 0-1zm0 3a.5.5 0 0 0 0 1h5a.5.5 0 0 0 0-1zm0 3a.5.5 0 0 0 0 1h5a.5.5 0 0 0 0-1zM12 1.943c0-.534-.45-.972-1-.972h-.78A1.99 1.99 0 0 0 8.5 0c-.74 0-1.38.389-1.72.971H6c-.55 0-1 .438-1 .972V3h7z"/>
  <path d="M13 4H4.04V2H3a1 1 0 0 0-1 1v14a1 1 0 0 0 1 1h3V8a1 1 0 0 1 1-1h8V3a1 1 0 0 0-1-1h-1z"/>
</svg>
